!!!OTL: DER MEIE BRINGT UNS BLUEMLEIN VIEL
!!!ARE: Europa, Mitteleuropa, Deutschland
!!!SCT: E0931
!!!YEM: Copyright 1995, estate of Helmut Schaffrath.
**kern
*ICvox
*Ivox
*M4/4
*k[f#]
*G:
{4g
=1
2dd
4dd
4g
=2
2dd
4dd}
{4ffn
=3
4ee
4dd
4cc
4b
=4
8cc
8dd
8ee
8cc
4dd}
{4dd
=5
4b
4b
4cc
4cc
=6
2dd
4b}
{4b
=7
4cc
4cc
4dd
4dd
=8
2b
4g}
{4g
=9
4cc
4cc
4a
4a
=10
2g
4r}
==
!!!AGN: Tanz - Lied, Reigen; Liebe
!!!ONB: ESAC (Essen Associative Code) Database: ERK2
!!!AMT: simple quadruple
!!!AIN: vox
!!!EED: Helmut Schaffrath
!!!EEV: 1.0
*-
